icons/dbeaver-dark.svg

<svg width="256" height="256" viewBox="0 0 256 256" fill="none" xmlns="http://www.w3.org/2000/svg">
<path d="M196 0H60C26.8629 0 0 26.8629 0 60V196C0 229.137 26.8629 256 60 256H196C229.137 256 256 229.137 256 196V60C256 26.8629 229.137 0 196 0Z" fill="#282828"/>
<path d="M123.656 16.8118H138.894C182.085 21.2624 213.527 42.7658 233.21 81.3327C239.077 94.2169 242.588 107.656 243.74 121.656V136.894C239.29 180.085 217.786 211.527 179.219 231.21C166.335 237.077 152.896 240.588 138.894 241.74H123.658C80.4675 237.29 49.0253 215.786 29.3349 177.22C23.4681 164.335 19.964 150.896 18.8117 136.894V121.658C23.2624 78.4676 44.7657 47.0253 83.3327 27.335C96.2168 21.4681 109.656 17.964 123.656 16.8118Z" fill="#382A24"/>
<path d="M217.752 128.377C217.268 116.388 214.133 105.182 208.344 94.772C209.5 91.3137 209.884 87.6439 209.468 84.0213C208.543 81.724 206.828 80.4589 204.312 80.2095C200.435 79.9869 196.55 79.9134 192.666 79.9893C193.469 79.6252 194.364 79.3995 195.353 79.3139C190.274 71.6335 183.906 64.8884 176.531 59.3761C167.096 51.596 156.189 47.7133 143.824 47.7279C134.039 47.9281 124.923 50.5366 116.49 55.5643C98.6343 65.7763 83.8515 79.3631 72.1269 96.343C68.4862 96.7616 64.8238 96.9837 61.154 97.011C42.1063 94.0184 36.5798 101.343 44.5728 118.969C47.8044 125.428 50.7931 132.005 53.5324 138.687C53.1264 144.057 52.8279 149.431 52.6368 154.815C46.8376 164.171 41.3815 173.736 36.2794 183.49C35.9809 184.087 35.6824 184.087 35.3838 183.49C20.7649 156.095 17.5502 127.416 25.7489 97.4588C38.0725 60.6485 62.6467 36.0742 99.457 23.7507C139.427 13.2366 174.975 21.448 206.104 48.3978C234.61 76.2558 245.739 109.939 239.488 149.438C234.369 175 222.046 196.282 202.521 213.291C201.538 214.152 200.493 214.749 199.385 215.084C196.591 206.749 197.11 198.615 200.95 190.666C206.626 181.396 211.142 171.463 214.395 161.091C217.595 150.319 218.711 139.419 217.752 128.377Z" fill="#E1D7CB"/>
<path d="M176.531 59.3762C183.906 64.8885 190.274 71.6337 195.353 79.314C194.426 79.3846 193.517 79.6124 192.666 79.9876C184.994 80.509 177.442 82.1703 170.26 84.917C163.241 85.2574 156.224 85.4776 149.199 85.585C147.415 86.3095 145.622 86.3878 143.824 85.8126C138.767 85.5996 134.585 83.579 131.272 79.7618C126.303 76.7256 121.075 76.1285 115.594 77.9688C111.717 80.6283 110.297 84.2853 111.335 88.949C113.716 93.1794 114.385 97.6592 113.355 102.394C112.927 103.112 112.551 103.86 112.23 104.633C99.7724 116.033 88.6495 128.811 79.075 142.721C76.2296 147.666 73.9746 152.928 72.3563 158.399C71.4607 166.178 74.6735 171.476 81.9912 174.313C86.0137 175.911 90.2316 176.966 94.5331 177.449C90.9508 180.172 86.9115 181.068 82.439 180.136C76.7841 179.147 71.2851 177.413 66.0853 174.981C60.7242 184.653 55.7168 194.517 51.0732 204.553C48.084 201.185 45.1707 197.75 42.3357 194.25C42.1887 193.975 42.1119 193.667 42.1119 193.355C42.1119 193.042 42.1887 192.735 42.3357 192.459C46.154 183.48 50.3382 174.66 54.8776 166.023C57.2112 170.153 60.5752 172.92 64.9621 174.313C61.4489 170.943 59.2791 166.831 58.4618 161.989C57.6407 154.298 58.4052 146.521 60.7081 139.137C69.6968 110.303 85.9012 86.4752 109.323 67.6677C119.428 60.4501 130.628 55.8211 142.928 53.7732C154.583 52.9778 165.789 54.8399 176.533 59.378L176.531 59.3762Z" fill="#FCFCFC"/>
<path d="M143.824 85.8125C137.544 88.0483 131.408 90.6679 125.449 93.6563C121.358 96.7013 117.396 99.9158 113.574 103.291C113.475 103.166 113.404 103.021 113.366 102.866C113.328 102.711 113.325 102.55 113.355 102.394C114.385 97.6591 113.716 93.1793 111.335 88.9489C110.297 84.2835 111.717 80.6301 115.594 77.9688C121.075 76.1285 126.303 76.7255 131.272 79.7618C134.585 83.579 138.767 85.5996 143.824 85.8125Z" fill="#382A24"/>
<path d="M192.666 79.9875C196.547 79.9111 200.43 79.9875 204.313 80.2096C206.83 80.459 208.543 81.7241 209.468 84.0213C209.884 87.6439 209.5 91.3137 208.344 94.7721C205.599 102.436 201.411 109.227 195.803 115.165C191.876 117.817 187.695 118.265 183.251 116.508C173.424 113.578 165.582 107.977 159.729 99.6997C157.865 94.9996 159.132 91.3372 163.541 88.7287C165.78 87.4544 168.019 86.1893 170.26 84.9169C177.442 82.1703 184.994 80.5089 192.666 79.9875Z" fill="#372923"/>
<path d="M170.26 84.9169C168.021 86.1893 165.78 87.4544 163.541 88.7286C159.132 91.3371 157.865 94.9996 159.729 99.6996C165.582 107.977 173.424 113.58 183.251 116.508C187.695 118.265 191.876 117.817 195.801 115.165C201.411 109.227 205.599 102.437 208.343 94.772C214.131 105.182 217.268 116.388 217.752 128.375C215.584 135.395 212.656 142.158 209.02 148.542C207.322 150.99 205.449 153.311 203.417 155.489C201.262 156.969 199.17 158.54 197.146 160.196L196.696 159.522C198.731 152.008 199.263 144.166 198.262 136.446C197.876 134.385 197.118 132.412 196.023 130.623C195.329 140.579 192.744 150.312 188.407 159.3C182.633 170.131 173.751 173.941 161.748 170.721C143.8 165.6 128.045 156.712 114.471 144.062C115.336 149.451 116.842 154.717 118.956 159.748C121.723 168.096 122.469 176.608 121.195 185.283C120.778 187.133 120.178 188.936 119.404 190.666C113.348 200.53 108.102 210.869 103.718 221.582C102.255 225.529 101.058 229.569 100.136 233.676C100.025 233.899 99.8667 234.094 99.6724 234.249C99.4782 234.404 99.2525 234.515 99.011 234.574C80.3401 228.712 64.3541 218.71 51.0713 204.551C55.7151 194.515 60.7224 184.651 66.0834 174.979C71.2833 177.411 76.7823 179.145 82.4371 180.134C86.9096 181.066 90.9489 180.17 94.5313 177.447C90.2297 176.964 86.0118 175.909 81.9893 174.311C74.6716 171.475 71.4588 166.176 72.3544 158.397C73.9727 152.926 76.2277 147.664 79.0732 142.719C88.6484 128.81 99.772 116.033 112.23 104.634C112.551 103.859 112.927 103.113 113.353 102.396C113.323 102.552 113.327 102.713 113.365 102.867C113.404 103.022 113.474 103.167 113.574 103.291C117.396 99.9157 121.358 96.7013 125.449 93.6562C131.408 90.6678 137.544 88.0483 143.823 85.8125C145.622 86.3877 147.413 86.3094 149.199 85.5849C156.231 85.4775 163.248 85.25 170.26 84.9169Z" fill="#887363"/>
<path d="M200.728 164.228C198.249 174.712 194.721 184.919 190.198 194.696C189.251 196.467 187.831 197.663 185.938 198.282L185.49 197.605C187.427 192.221 188.339 186.523 188.179 180.804C186.566 187.521 184.082 194 180.79 200.073C177.35 201.488 173.837 201.708 170.26 200.742C169.149 199.344 168.311 197.75 167.792 196.042C166.639 190.432 165.966 184.734 165.78 179.011C179.988 179.972 191.634 175.042 200.73 164.23L200.728 164.228Z" fill="#FBFBFB"/>
</svg>

<svg xmlns="http://www.w3.org/2000/svg" width="256" height="256" fill="none"><path fill="#282828" d="M196 0H60C26.863 0 0 26.863 0 60v136c0 33.137 26.863 60 60 60h136c33.137 0 60-26.863 60-60V60c0-33.137-26.863-60-60-60"/><path fill="#382A24" d="M123.656 16.812h15.238c43.191 4.45 74.633 25.954 94.316 64.52q8.801 19.326 10.53 40.324v15.238c-4.45 43.191-25.954 74.633-64.521 94.316-12.884 5.867-26.323 9.378-40.325 10.53h-15.236q-64.787-6.673-94.323-64.52c-5.867-12.885-9.371-26.324-10.523-40.326v-15.236q6.673-64.787 64.52-94.323c12.885-5.867 26.324-9.371 40.324-10.523"/><path fill="#E1D7CB" d="M217.752 128.377c-.484-11.989-3.619-23.195-9.408-33.605a24.9 24.9 0 0 0 1.124-10.75c-.925-2.298-2.64-3.563-5.156-3.812a152 152 0 0 0-11.646-.22q1.204-.547 2.687-.676a80 80 0 0 0-18.822-19.938c-9.435-7.78-20.342-11.663-32.707-11.648-9.785.2-18.901 2.809-27.334 7.836-17.856 10.212-32.638 23.8-44.363 40.779-3.64.419-7.303.64-10.973.668-19.048-2.993-24.574 4.332-16.581 21.958a289 289 0 0 1 8.96 19.718 404 404 0 0 0-.896 16.128 453 453 0 0 0-16.358 28.675q-.448.896-.895 0-21.932-41.094-9.635-86.031c12.324-36.81 36.898-61.385 73.708-73.708 39.97-10.514 75.518-2.303 106.647 24.647 28.506 27.858 39.635 61.541 33.384 101.04q-7.679 38.341-36.967 63.853-1.474 1.291-3.136 1.793c-2.794-8.335-2.275-16.469 1.565-24.418a132.7 132.7 0 0 0 13.445-29.575c3.2-10.772 4.316-21.672 3.357-32.714"/><path fill="#FCFCFC" d="M176.531 59.376a80 80 0 0 1 18.822 19.938 8.2 8.2 0 0 0-2.687.674 77.4 77.4 0 0 0-22.406 4.929c-7.019.34-14.036.56-21.061.668q-2.677 1.089-5.375.228c-5.057-.213-9.239-2.234-12.552-6.051q-7.455-4.553-15.678-1.793c-3.877 2.66-5.297 6.316-4.259 10.98 2.381 4.23 3.05 8.71 2.02 13.445a17.4 17.4 0 0 0-1.125 2.239 223 223 0 0 0-33.155 38.088 73 73 0 0 0-6.719 15.678c-.895 7.779 2.318 13.077 9.635 15.914a48.7 48.7 0 0 0 12.542 3.136c-3.582 2.723-7.621 3.619-12.094 2.687a65 65 0 0 1-16.354-5.155 456 456 0 0 0-15.012 29.572 300 300 0 0 1-8.737-10.303 1.9 1.9 0 0 1 0-1.791 358 358 0 0 1 12.542-26.436c2.333 4.13 5.697 6.897 10.084 8.29-3.513-3.37-5.683-7.482-6.5-12.324a56.6 56.6 0 0 1 2.246-22.852c8.989-28.834 25.193-52.662 48.615-71.47q15.156-10.824 33.605-13.894c11.655-.795 22.861 1.067 33.605 5.605z"/><path fill="#382A24" d="M143.824 85.813a163 163 0 0 0-18.375 7.843 183 183 0 0 0-11.875 9.635 1.11 1.11 0 0 1-.219-.897c1.03-4.735.361-9.215-2.02-13.445-1.038-4.665.382-8.319 4.259-10.98q8.223-2.76 15.678 1.793c3.313 3.817 7.495 5.838 12.552 6.05"/><path fill="#372923" d="M192.666 79.988c3.881-.077 7.764 0 11.647.222 2.517.249 4.23 1.514 5.155 3.811a24.9 24.9 0 0 1-1.124 10.751c-2.745 7.664-6.933 14.455-12.541 20.393-3.927 2.652-8.108 3.1-12.552 1.343q-14.742-4.394-23.522-16.808c-1.864-4.7-.597-8.363 3.812-10.971 2.239-1.275 4.478-2.54 6.719-3.812a77.4 77.4 0 0 1 22.406-4.93"/><path fill="#887363" d="M170.26 84.917c-2.239 1.272-4.48 2.537-6.719 3.812-4.409 2.608-5.676 6.27-3.812 10.97q8.78 12.417 23.522 16.809 6.664 2.635 12.55-1.343c5.61-5.938 9.798-12.728 12.542-20.393 5.788 10.41 8.925 21.616 9.409 33.603a101 101 0 0 1-8.732 20.167 62 62 0 0 1-5.603 6.947 94 94 0 0 0-6.271 4.707l-.45-.674a59.2 59.2 0 0 0 1.566-23.076 17.2 17.2 0 0 0-2.239-5.823 78.6 78.6 0 0 1-7.616 28.677c-5.774 10.831-14.656 14.641-26.659 11.421-17.948-5.121-33.703-14.009-47.277-26.659a68.5 68.5 0 0 0 4.485 15.686q4.15 12.522 2.239 25.535a28.6 28.6 0 0 1-1.791 5.383 214 214 0 0 0-15.686 30.916 94 94 0 0 0-3.582 12.094 1.7 1.7 0 0 1-1.125.898c-18.67-5.862-34.657-15.864-47.94-30.023a456 456 0 0 1 15.012-29.572 65 65 0 0 0 16.354 5.155c4.473.932 8.512.036 12.094-2.687a48.7 48.7 0 0 1-12.542-3.136c-7.317-2.836-10.53-8.135-9.635-15.914a73 73 0 0 1 6.72-15.678 223 223 0 0 1 33.156-38.085q.483-1.163 1.123-2.238a1.1 1.1 0 0 0 .221.895 183 183 0 0 1 11.875-9.635 163 163 0 0 1 18.374-7.844c1.799.576 3.59.497 5.376-.227a654 654 0 0 0 21.061-.668"/><path fill="#FBFBFB" d="M200.728 164.228a160.6 160.6 0 0 1-10.53 30.468q-1.42 2.657-4.26 3.586l-.448-.677a45.8 45.8 0 0 0 2.689-16.801 79.3 79.3 0 0 1-7.389 19.269c-3.44 1.415-6.953 1.635-10.53.669a14.2 14.2 0 0 1-2.468-4.7 101 101 0 0 1-2.012-17.031c14.208.961 25.854-3.969 34.95-14.781z"/></svg>
